modules/falco-website/static/icons/sysdig.svg

<?xml version="1.0" encoding="UTF-8"?><svg xmlns="http://www.w3.org/2000/svg" viewBox="0 0 230.382 82.7982">
  <defs/>
  <defs>
    <style>
      .f04ca906-1e69-4f27-8621-a7ab0851ca11{fill:#55565b}.e330b834-161b-487c-bb13-8bca561e66de{fill:#00abc7}
    </style>
  </defs>
  <g id="ef34e798-518f-4388-ac79-8e481fcb331f" data-name="Layer 1">
    <path d="M98.358 65.7388a8.0948 8.0948 0 01-3.0874 6.8551 12.1315 12.1315 0 01-7.6405 2.1979 18.9877 18.9877 0 01-12.0357-4.2388l3.4013-5.2332q4.6045 3.3496 8.8439 3.3492 3.3484 0 3.3491-2.0931v-.1048q0-1.1501-1.7271-1.9362-.6278-.2608-4.0815-1.3082-8.3732-2.459-8.3728-8.425v-.1047a8.0519 8.0519 0 013.035-6.5939 11.065 11.065 0 017.2214-2.3026A18.3587 18.3587 0 0197.73 49.0453l-3.0353 5.4944q-4.4486-2.6156-7.588-2.6164-2.931 0-2.9305 1.9362v.1048q0 1.0475 1.7271 1.884.6795.3136 3.9772 1.465a20.2606 20.2606 0 015.7038 2.7212 6.8434 6.8434 0 012.7738 5.5995zM117.7006 74.9487q-1.6225 4.3431-3.6107 6.0706a8.3615 8.3615 0 01-5.5992 1.779 13.7213 13.7213 0 01-7.0646-1.9363l2.669-5.756a6.6964 6.6964 0 003.4013 1.0987 2.919 2.919 0 002.7736-1.8315L99.2805 46.2195h8.4253l6.384 19.1003 6.1229-19.1003h8.268zM150.8894 65.7388a8.0948 8.0948 0 01-3.0874 6.8551 12.1315 12.1315 0 01-7.6405 2.1979 18.9877 18.9877 0 01-12.0358-4.2388l3.4013-5.2332q4.6046 3.3496 8.844 3.3492 3.3483 0 3.349-2.0931v-.1048q0-1.1501-1.727-1.9362-.6279-.2608-4.0815-1.3082-8.3732-2.459-8.3728-8.425v-.1047a8.0519 8.0519 0 013.0349-6.5939 11.065 11.065 0 017.2215-2.3026 18.3587 18.3587 0 0110.4663 3.2448l-3.0353 5.4944q-4.4486-2.6156-7.5879-2.6164-2.931 0-2.9306 1.9362v.1048q0 1.0475 1.7272 1.884.6794.3136 3.977 1.465a20.2606 20.2606 0 015.704 2.7212 6.8434 6.8434 0 012.7736 5.5995zM175.1603 74.2685V71.809a12.6497 12.6497 0 01-8.7392 2.9828 11.8537 11.8537 0 01-8.8439-3.7155q-3.9246-4.0817-3.9246-10.7802v-.1047q0-6.6979 3.8724-10.7797a11.9161 11.9161 0 018.8961-3.7155 14.207 14.207 0 018.7392 2.6164V36.0673h7.9543v38.2012zm.1047-14.077a8.0298 8.0298 0 00-1.9883-5.5992 6.2229 6.2229 0 00-4.8146-2.1457 6.2914 6.2914 0 00-4.8143 2.0931 7.9768 7.9768 0 00-2.0409 5.6517v.1047a7.9042 7.9042 0 002.041 5.5996 6.474 6.474 0 009.6288 0 8.0295 8.0295 0 001.9883-5.5995zM187.9292 43.132v-7.0647h8.3728v7.0647zm.209 31.1365v-28.049h7.9543v28.049zM230.382 67.9366q0 7.7981-3.9246 11.3556-3.768 3.4538-11.7223 3.4538a26.1327 26.1327 0 01-12.4021-2.9305l2.7211-6.4888a19.0496 19.0496 0 009.472 2.5642q8.0062 0 8.0064-6.594v-.3137a14.2981 14.2981 0 01-9.1577 2.9827 11.985 11.985 0 01-8.687-3.4013 12.889 12.889 0 01-3.7678-9.6814v-.1047a12.7953 12.7953 0 013.8202-9.681 11.921 11.921 0 018.6345-3.4013 15.629 15.629 0 019.053 2.6164v-2.0931h7.9543zm-7.8495-9.1581a6.057 6.057 0 00-1.9884-4.6573 7.382 7.382 0 00-9.7336 0 6.1324 6.1324 0 00-1.9362 4.6573v.1047a6.1925 6.1925 0 001.9362 4.7099 6.913 6.913 0 004.8668 1.7793 6.8031 6.8031 0 004.8668-1.8315 6.0562 6.0562 0 001.9884-4.6577z" class="f04ca906-1e69-4f27-8621-a7ab0851ca11"/>
    <g>
      <path d="M42.2368 74.1364A19.9025 19.9025 0 0124.5753 63.825c-1.555-2.6932-5.5643-9.833-5.7662-10.1953a2.7022 2.7022 0 014.7213-2.63c.0492.0884 4.191 7.4655 5.7254 10.123 3.8055 6.5916 10.775 9.1096 18.644 6.731a2.7023 2.7023 0 011.5626 5.1738 24.9965 24.9965 0 01-7.2256 1.109z" class="e330b834-161b-487c-bb13-8bca561e66de"/>
      <path d="M42.8229 82.7084c-10.302 0-19.9175-4.8207-24.7557-13.2009L7.009 50.3545a2.702 2.702 0 01.9889-3.6911l7.5322-4.3488a2.7022 2.7022 0 112.7023 4.6802l-5.1921 2.9975 9.707 16.8129c5.2621 9.1142 17.7731 12.9147 29.2563 8.9515 9.1733-7.9626 12.138-20.6984 6.8763-29.8126l-9.2921-16.094a2.7022 2.7022 0 114.6801-2.7023l9.2921 16.094c6.6237 11.4725 2.993 27.3639-8.4449 36.9642a2.6977 2.6977 0 01-.8137.4697 33.5903 33.5903 0 01-11.4786 2.0327zm10.5549-4.572z" class="e330b834-161b-487c-bb13-8bca561e66de"/>
      <path d="M42.0111 65.3744c-4.268 0-7.8857-2.8418-9.723-6.024L.3627 4.0536a2.7022 2.7022 0 014.6801-2.7023L36.9683 56.648c.8708 1.5077 3.3393 4.095 6.445 3.0928a2.7023 2.7023 0 011.6578 5.1441 9.9442 9.9442 0 01-3.06.4895zM35.098 36.8398a2.7028 2.7028 0 01-2.3402-1.3511l-8.9583-15.517a2.7022 2.7022 0 014.6801-2.7023l7.6076 13.1769 4.8386-2.7938a2.7022 2.7022 0 012.7024 4.6801l-7.1791 4.145a2.7033 2.7033 0 01-1.3512.3622z" class="e330b834-161b-487c-bb13-8bca561e66de"/>
    </g>
  </g>
</svg>

<?xml version="1.0" encoding="UTF-8" standalone="no"?>
<!DOCTYPE svg PUBLIC "-//W3C//DTD SVG 1.1//EN" "http://www.w3.org/Graphics/SVG/1.1/DTD/svg11.dtd">
<svg width="100%" height="100%" viewBox="0 0 914 285" version="1.1" xmlns="http://www.w3.org/2000/svg" xmlns:xlink="http://www.w3.org/1999/xlink" xml:space="preserve" xmlns:serif="http://www.serif.com/" style="fill-rule:evenodd;clip-rule:evenodd;stroke-linejoin:round;stroke-miterlimit:2;">
    <g transform="matrix(1,0,0,1,27,-516.569)">
        <g transform="matrix(1,0,0,1,48,258.555)">
            <g transform="matrix(3.3098,0,0,2.3938,3.39912,300.975)">
                <rect id="Artboard1" x="-23.687" y="-17.947" width="276.15" height="119" style="fill:none;"/>
                <g transform="matrix(1.406,0,0,1.94401,-100.713,-73.9948)">
                    <g id="Artboard11" serif:id="Artboard1">
                        <g>
                            <g id="ef34e798-518f-4388-ac79-8e481fcb331f">
                                <path d="M98.358,65.739C98.517,68.39 97.361,70.956 95.271,72.594C93.043,74.164 90.351,74.938 87.63,74.792C83.25,74.81 78.996,73.311 75.594,70.553L78.996,65.32C82.065,67.553 85.013,68.669 87.84,68.669C90.072,68.669 91.188,67.971 91.189,66.576L91.189,66.471C91.189,65.704 90.613,65.059 89.462,64.535C89.043,64.361 87.683,63.925 85.38,63.227C79.798,61.587 77.007,58.779 77.007,54.802L77.007,54.697C76.915,52.144 78.043,49.693 80.042,48.103C82.103,46.51 84.661,45.694 87.264,45.801C91.001,45.791 94.653,46.924 97.73,49.045L94.695,54.54C91.729,52.796 89.2,51.924 87.107,51.923C85.153,51.923 84.176,52.569 84.176,53.859L84.176,53.964C84.176,54.663 84.752,55.291 85.903,55.848C86.356,56.057 87.682,56.546 89.881,57.313C91.912,57.916 93.837,58.835 95.584,60.035C97.355,61.344 98.389,63.431 98.358,65.634L98.358,65.739ZM117.701,74.949C116.619,77.844 115.415,79.868 114.09,81.019C112.501,82.27 110.51,82.902 108.491,82.798C106.004,82.805 103.562,82.136 101.426,80.862L104.095,75.106C105.108,75.774 106.284,76.153 107.496,76.205C108.709,76.231 109.818,75.499 110.27,74.373L99.281,46.219L107.706,46.219L114.09,65.32L120.213,46.219L128.481,46.219L117.701,74.949ZM150.889,65.739C151.048,68.39 149.892,70.956 147.802,72.594C145.575,74.164 142.882,74.938 140.162,74.792C135.782,74.81 131.528,73.311 128.126,70.553L131.527,65.32C134.597,67.553 137.545,68.669 140.371,68.669C142.603,68.669 143.72,67.971 143.72,66.576L143.72,66.471C143.72,65.704 143.144,65.059 141.993,64.535C141.574,64.361 140.214,63.925 137.911,63.227C132.329,61.587 129.538,58.779 129.539,54.802L129.539,54.697C129.446,52.144 130.574,49.693 132.574,48.103C134.634,46.51 137.193,45.694 139.795,45.801C143.532,45.791 147.185,46.924 150.261,49.045L147.226,54.54C144.26,52.796 141.731,51.924 139.638,51.923C137.684,51.923 136.707,52.569 136.708,53.859L136.708,53.964C136.708,54.663 137.283,55.291 138.435,55.848C138.888,56.057 140.213,56.546 142.412,57.313C144.444,57.916 146.369,58.835 148.116,60.034C149.887,61.344 150.921,63.432 150.889,65.634L150.889,65.739ZM175.16,74.269L175.16,71.809C172.728,73.868 169.605,74.934 166.421,74.792C163.083,74.855 159.869,73.504 157.577,71.076C154.961,68.355 153.653,64.762 153.653,60.296L153.653,60.191C153.653,55.726 154.943,52.133 157.525,49.412C159.833,46.977 163.066,45.626 166.421,45.696C169.542,45.584 172.615,46.504 175.16,48.313L175.16,36.067L183.115,36.067L183.115,74.269L175.16,74.269ZM175.265,60.192C175.343,58.14 174.631,56.135 173.277,54.592C172.07,53.2 170.304,52.413 168.462,52.447C166.63,52.409 164.87,53.175 163.648,54.54C162.257,56.085 161.525,58.114 161.607,60.191L161.607,60.296C161.531,62.357 162.263,64.368 163.648,65.896C164.875,67.261 166.627,68.041 168.462,68.041C170.298,68.041 172.049,67.261 173.277,65.896C174.631,64.353 175.343,62.348 175.265,60.296L175.265,60.192ZM187.929,43.132L187.929,36.067L196.302,36.067L196.302,43.132L187.929,43.132ZM188.138,74.269L188.138,46.22L196.093,46.22L196.093,74.269L188.138,74.269ZM230.382,67.937C230.382,73.135 229.074,76.921 226.457,79.292C223.945,81.595 220.038,82.746 214.735,82.746C210.423,82.808 206.162,81.801 202.333,79.816L205.054,73.327C207.933,74.994 211.199,75.878 214.526,75.891C219.864,75.891 222.532,73.693 222.533,69.297L222.533,68.983C219.917,71.006 216.68,72.061 213.375,71.966C210.14,72.052 207.004,70.824 204.688,68.565C202.131,66.01 200.762,62.494 200.92,58.883L200.92,58.779C200.764,55.158 202.154,51.636 204.74,49.098C207.04,46.845 210.157,45.617 213.375,45.696C216.589,45.616 219.751,46.53 222.428,48.313L222.428,46.22L230.382,46.22L230.382,67.937ZM222.533,58.779C222.582,57.011 221.854,55.308 220.544,54.121C217.772,51.691 213.583,51.691 210.811,54.121C209.528,55.323 208.822,57.021 208.874,58.779L208.874,58.883C208.814,60.657 209.52,62.374 210.811,63.593C212.14,64.794 213.886,65.433 215.677,65.372C217.477,65.43 219.229,64.771 220.544,63.541C221.855,62.354 222.582,60.651 222.533,58.883L222.533,58.779Z" style="fill-rule:nonzero;"/>
                            </g>
                        </g>
                    </g>
                </g>
            </g>
        </g>
    </g>
</svg>
